X:1
T:Crystal Chandeliers
M:4/4
L:1/4
K:F
 C/2| A A A B| c c B A| G A B2-| B3 C/2C/2| G G G G/2A/2| B B A G/2G/2|\
 F G A2-| A3 c/2B/2| A A A A/2B/2| c c B B/2A/2| G A B2-| B3A/2-B/2|\
 c c A G/2A/2| B G F E| F4-| F3 z/2 C/2| A A A B| c c B3/2 A/2| A G G A|\
 B3 z/2 C/2| G G G A| B3/2 B/2 A G| G F F G| A2- A/2c/2 c/2B/2| A A A/2^G/2 A/2B/2|\
 c c B B/2A/2| G A B2-| B3 A/2B/2| c c A G/2A/2| B G F E| F4-| F3 z/2||\
